assets/icons/resource_ext-link.svg

<svg width="24" height="25" viewBox="0 0 24 25" fill="none" xmlns="http://www.w3.org/2000/svg">
<path d="M4.22222 2.82422C3.00771 2.82422 2 3.83193 2 5.04644V20.602C2 21.8165 3.00771 22.8242 4.22222 22.8242H19.7778C20.9923 22.8242 22 21.8165 22 20.602V12.8242H19.7778V20.602H4.22222V5.04644H12V2.82422H4.22222ZM14.2222 2.82422V5.04644H18.2066L7.88108 15.372L9.45226 16.9431L19.7778 6.61762V10.602H22V2.82422H14.2222Z" fill="black"/>
</svg>

<svg width="20" height="20" viewBox="0 0 24 24" fill="none" xmlns="http://www.w3.org/2000/svg"><path d="M4.222 2.824A2.239 2.239 0 0 0 2 5.046v15.556a2.239 2.239 0 0 0 2.222 2.222h15.556A2.239 2.239 0 0 0 22 20.602v-7.778h-2.222v7.778H4.222V5.046H12V2.824H4.222Zm10 0v2.222h3.985L7.88 15.372l1.571 1.571L19.778 6.618v3.984H22V2.824h-7.778Z" fill="#0980A5"/></svg>
